!!!ONB: MCCC : ILB0179_04 : Extracted Monophonic Melody
!!!COM: Beethoven, Ludwig van
!!!OPR: Piano Sonata No.18
!!!OMV: 4
!!!SCT: Op.31 No.3
!!!ODT: 1801///
**kern
*thru
*Ipiano
*staff1
*>I
*clefG2
*k[b-e-a-]
*E-:
*M6/8
*MM240
*>A
8bb-
=3
4bb-
8aa-
4ff
8dd
=4
4ee-
8r
4r
8b-
=5
4b-
8a-
4f
8d
=6
4e-
8r
4r
8r
=7
2.r
=8
4r
8r
4r
8bb-
=9
4bb-
8aa-
4ff
8dd
=10
4ee-
8r
4r
8b-
=11
4b-
8a-
4f
8d
=12
4e-
8r
8B-
8r
8B-
=13
8e-
8r
8e-
8B-
8r
8B-
=14
8e-
8r
8e-
8B-
8r
8B-
=15
8e-
8r
8e-
8B-
8r
8B-
=16
8f
8r
8f
8B-
8r
8B-
=17
8f
8r
8f
8B-
8r
8B-
=18
8f
8r
8f
8B-
8r
8B-
=19
8f
8r
8f
8B-
8r
8B-
=20
8g
8r
8g
8e-
8r
8e-
=21
8a-
8r
8a-
8cc
8r
8cc
=22
8b-
8r
8b-
8ee-
8r
8ee-
=23
8aa-
8r
8aa-
8ccc
8r
8ccc
=24
8bb-
8r
8b-
8e-
8r
8e-
=25
8a-
8r
8a-
8cc
8r
8cc
=26
8b-
8r
8g
8f
8r
8a-
=27
8e-
8r
8g
8d
8r
8f
=28
4e-
8r
8e-
8r
8e-
=29
8a-
8r
8a-
8cc-
8r
8cc-
=30
8b-
8r
8b-
8ee-
8r
8ee-
=31
8aa-
8r
8aa-
8ccc-
8r
8ccc-
=32
8bb-
8r
8b-
8e-
8r
8e-
=33
8a
8r
8a
8cc
8r
8cc
=34
2.f
=35
4.ff
4ff
8r
=36
4ff
8r
4ff
8r
=37
4ff
8r
4ff
8r
=38
2.ff
=39
4.fff
4fff
8r
=40
4fff
8r
4fff
8r
=41
4fff
8r
4fff
8r
=42
4fff
8aa
8bb-
8ccc
8ddd
=43
4r
8ff#
8gg
8aa
8bb-
=44
4r
8dd
8ee-
8ff
8gg
=45
4r
8b
8cc
8dd
8ee-
=46
8r
8c
8e-
8g
8e-
8g
=47
8cc
8g
8cc
8ee-
8cc
8ee-
=48
8gg
8ff
8ee-
8dd
8ee-
8cc
=49
8ff
8dd
8b-
8ee-
8cc
8a
=50
8r
8fff
8aa
8bb-
8ccc
8ddd
=51
8r
8ddd
8ff#
8gg
8aa
8bb-
=52
8r
8bb-
8dd
8ee-
8ff
8gg
=53
8r
8gg
8b
8cc
8dd
8ee-
=54
8r
8G
8c
8e-
8c
8e-
=55
8g
8c
8e-
8g
8e-
8g
=56
8cc
8e-
8g
8cc
8g
8cc
=57
8ee-
8g
8cc
8ee-
8cc
8ee-
=58
8gg
8g
8cc
8ee-
8cc
8ee-
=59
8gg
8g
8cc
8ee-
8cc
8ee-
=60
8gg
8g
8f#
8g
8a-
8a
=61
8b-
8b
8cc
8cc#
8dd
8ee-
=62
8ee
8ff
8ff#
8gg
8ee-
8cc
=63
4b-
8r
4.cc
=64
8b-
8r
8b-
8dd
8r
8dd
=65
8ff
8r
8ff
8bb-
8r
8bb-
=66
8ddd
8r
8ddd
8fff
8r
8bb-
=67
8ddd
8r
8ff
8bb-
8r
8dd
=68
8ff
8r
8b-
8dd
8r
8cc
=69
8ee-
8r
8a
8cc
8r
8a
=70
8b-
8r
8b-
8dd
8r
8dd
=71
8ff
8r
8ff
8bb-
8r
8bb-
=72
8ddd
8r
8ddd
8fff
8r
8bb-
=73
8ddd
8r
8ff
8bb-
8r
8dd
=74
8ff
8r
8b-
8dd
8r
8f
=75
8b-
8r
8d
8f
8r
8B-
=76
8d
8r
8F
8B-
8r
8D
=77
8F
8r
8E
8G
8r
8F
=78
*>A1
2.A-
=79
4.A-[
8A-]
8r
8r
=80
*>A
2.r
=81
4r
8r
4r
8bb-
=82
4bb-
8aa-
4ff
8dd
=83
4ee-
8r
4r
8b-
=84
4b-
8a-
4f
8d
=85
4e-
8r
4r
8r
=86
2.r
=87
4r
8r
4r
8bb-
=88
4bb-
8aa-
4ff
8dd
=89
4ee-
8r
4r
8b-
=90
4b-
8a-
4f
8d
=91
4e-
8r
8B-
8r
8B-
=92
8e-
8r
8e-
8B-
8r
8B-
=93
8e-
8r
8e-
8B-
8r
8B-
=94
8e-
8r
8e-
8B-
8r
8B-
=95
8f
8r
8f
8B-
8r
8B-
=96
8f
8r
8f
8B-
8r
8B-
=97
8f
8r
8f
8B-
8r
8B-
=98
8f
8r
8f
8B-
8r
8B-
=99
8g
8r
8g
8e-
8r
8e-
=100
8a-
8r
8a-
8cc
8r
8cc
=101
8b-
8r
8b-
8ee-
8r
8ee-
=102
8aa-
8r
8aa-
8ccc
8r
8ccc
=103
8bb-
8r
8b-
8e-
8r
8e-
=104
8a-
8r
8a-
8cc
8r
8cc
=105
8b-
8r
8g
8f
8r
8a-
=106
8e-
8r
8g
8d
8r
8f
=107
4e-
8r
8e-
8r
8e-
=108
8a-
8r
8a-
8cc-
8r
8cc-
=109
8b-
8r
8b-
8ee-
8r
8ee-
=110
8aa-
8r
8aa-
8ccc-
8r
8ccc-
=111
8bb-
8r
8b-
8e-
8r
8e-
=112
8a
8r
8a
8cc
8r
8cc
=113
2.f
=114
4.ff
4ff
8r
=115
4ff
8r
4ff
8r
=116
4ff
8r
4ff
8r
=117
2.ff
=118
4.fff
4fff
8r
=119
4fff
8r
4fff
8r
=120
4fff
8r
4fff
8r
=121
4fff
8aa
8bb-
8ccc
8ddd
=122
4r
8ff#
8gg
8aa
8bb-
=123
4r
8dd
8ee-
8ff
8gg
=124
4r
8b
8cc
8dd
8ee-
=125
8r
8c
8e-
8g
8e-
8g
=126
8cc
8g
8cc
8ee-
8cc
8ee-
=127
8gg
8ff
8ee-
8dd
8ee-
8cc
=128
8ff
8dd
8b-
8ee-
8cc
8a
=129
8r
8fff
8aa
8bb-
8ccc
8ddd
=130
8r
8ddd
8ff#
8gg
8aa
8bb-
=131
8r
8bb-
8dd
8ee-
8ff
8gg
=132
8r
8gg
8b
8cc
8dd
8ee-
=133
8r
8G
8c
8e-
8c
8e-
=134
8g
8c
8e-
8g
8e-
8g
=135
8cc
8e-
8g
8cc
8g
8cc
=136
8ee-
8g
8cc
8ee-
8cc
8ee-
=137
8gg
8g
8cc
8ee-
8cc
8ee-
=138
8gg
8g
8cc
8ee-
8cc
8ee-
=139
8gg
8g
8f#
8g
8a-
8a
=140
8b-
8b
8cc
8cc#
8dd
8ee-
=141
8ee
8ff
8ff#
8gg
8ee-
8cc
=142
4b-
8r
4.cc
=143
8b-
8r
8b-
8dd
8r
8dd
=144
8ff
8r
8ff
8bb-
8r
8bb-
=145
8ddd
8r
8ddd
8fff
8r
8bb-
=146
8ddd
8r
8ff
8bb-
8r
8dd
=147
8ff
8r
8b-
8dd
8r
8cc
=148
8ee-
8r
8a
8cc
8r
8a
=149
8b-
8r
8b-
8dd
8r
8dd
=150
8ff
8r
8ff
8bb-
8r
8bb-
=151
8ddd
8r
8ddd
8fff
8r
8bb-
=152
8ddd
8r
8ff
8bb-
8r
8dd
=153
8ff
8r
8b-
8dd
8r
8f
=154
8b-
8r
8d
8f
8r
8B-
=155
8d
8r
8F
8B-
8r
8D
=156
8F
8r
8E
8G
8r
8F
=157
*>A2
2.A-[
=158
2.A-]
=159
*>B
4r
8F
8A-
8r
8F
=160
8A-
8r
8G-
8B-
8r
8A-
=161
2.c-[
=162
4.c-]
8d-
8r
8d-
=163
8g-
8r
8g-
8d-
8r
8d-
=164
8g-
8r
8g-
8d-
8r
8d-
=165
8g-
8r
8g-
8d-
8r
8d-
=166
8a-
8r
8a-
8d-
8r
8d-
=167
8a-
8r
8a-
8d-
8r
8d-
=168
8a-
8r
8a-
8d-
8r
8d-
=169
8a-
8r
8a-
8d-
8r
8d-
=170
4b-
8r
4cc#
8cc#
=171
4ff#
8ff#
4cc#
8cc#
=172
4ff#
8ff#
4cc#
8cc#
=173
4ff#
8ff#
4cc#
8cc#
=174
4ff#
8aa#
4ccc#
8ff#
=175
2.ddd
=176
4bb
8r
4ff#
8r
=177
4dd
8r
4b
8r
=178
4f#
8r
4d
8dd
=179
4gg
8gg
4dd
8dd
=180
4gg
8gg
4dd
8dd
=181
4gg
8gg
4dd
8dd
=182
4gg
8bb
4ddd
8gg
=183
2.eee-
=184
4ccc
8r
4gg
8r
=185
4ee-
8r
4cc
8r
=186
4g
8r
4e-
8r
=187
2.eee-
=188
4ccc
8r
4aa-
8r
=189
4ee-
8r
4cc
8r
=190
4a-
8r
4e-
8r
=191
2.fff
=192
4ddd-
8r
4aa-
8r
=193
4ff
8r
4dd-
8r
=194
4a-
8r
4f
8r
=195
2.bb
=196
4ff
8r
4dd
8r
=197
4b
8r
4f
8r
=198
4d
8r
4B
8G
=199
8c
8r
8c
8G
8r
8G
=200
8c
8r
8c
8G
8r
8G
=201
8c
8r
8c
8G
8r
8G
=202
8d
8r
8d
8G
8r
8G
=203
8d
8r
8d
8G
8r
8G
=204
8d
8r
8d
8G
8r
8G
=205
8d
8r
8d
8G
8r
8G
=206
4e
8r
4r
8r
=207
8r
8e
8g
8b-
8dd-
8ee
=208
8r
8g
8b-
8dd-
8ee
8gg
=209
8r
8ee
8gg
8bb-
8ddd-
8eee
=210
4r
8r
4ee-
8ee-
=211
4gg-
8r
4ee-
8ee-
=212
4gg-
8r
4ee-
8ee-
=213
4gg-
8r
4ee-
8ee-
=214
8gg-
8ee-
8ff
8gg-
8ff
8ee-
=215
8dd
8d
8f
8a-
8cc-
8dd
=216
8r
8f
8a-
8cc-
8dd
8ff
=217
8r
8dd
8ff
8aa-
8ccc-
8ddd
=218
4r
8r
4ddd-
8ddd-
=219
4fff-
8r
4ddd-
8ddd-
=220
4fff-
8r
4ddd-
8ddd-
=221
4fff-
8r
4ddd-
8ddd-
=222
8fff-
8ddd-
8eee-
8fff-
8eee-
8ddd-
=223
8ccc
8aa-
8ee-
8cc
8aa-
8ee-
=224
8ccc
8aa-
8ee-
8cc
8aa-
8ee-
=225
8ccc
8aa-
8ee-
8cc
8aa-
8ee-
=226
8ccc
8aa-
8ee-
8cc
8aa-
8ee-
=227
2.ccc[
=228
8ccc]
8aa-
8ee-
8cc
8a-
8e-
=229
8cc
8a-
8e-
4r
8r
=230
4r
8r
4r
8r
=231
8aa-
8ff
8cc
8a-
8ff
8cc
=232
8aa-
8ff
8cc
8a-
8ff
8cc
=233
8aa-
8ff
8cc
8a-
8ff
8cc
=234
8aa-
8ff
8cc
8a-
8ff
8cc
=235
2.aa-[
=236
8aa-]
8ff
8cc
8a-
8f
8c
=237
8a-
8f
8c
4r
8r
=238
4r
8r
4r
8r
=239
8aa-
8ff
8b-
8a-
8ff
8b-
=240
8aa-
8ff
8b-
8a-
8ff
8b-
=241
8aa-
8ff
8b-
8a-
8ff
8b-
=242
8aa-
8ff
8b-
8a-
8ff
8b-
=243
8aa-
8D
8F
8A-
8F
8D
=244
8A-
8F
8D
8A-
8F
8D
=245
8A-
8F
8D
8A-
8F
8D
=246
8A-
8F
8D
8A-
8F
8D
=247
8A-
8F
8D
8A-
8F
8D
=248
8A-
8F
8D
8A-
8F
8D
=249
8A-
8F
8D
8A-
8F
8D
=250
8A-
8F
8D
4r
8r
=251
2.r
=252
4r
8r
4r
8bb-
=253
4bb-
8aa-
4ff
8dd
=254
4ee-
8r
4r
8b-
=255
4b-
8a-
4f
8d
=256
4e-
8r
4r
8r
=257
2.r
=258
4r
8r
4r
8bb-
=259
8bb-
8aa-
8gg
8aa-
8ff
8dd
=260
4ee-
8r
4r
8b-
=261
8b-
8a-
8g
8a-
8f
8d
=262
4e-
8r
8B-
8r
8B-
=263
8e-
8r
8e-
8B-
8r
8B-
=264
8e-
8r
8e-
8B-
8r
8B-
=265
8e-
8r
8e-
8B-
8r
8B-
=266
8f
8r
8f
8B-
8r
8B-
=267
8f
8r
8f
8B-
8r
8B-
=268
8f
8r
8f
8B-
8r
8B-
=269
8f
8r
8f
8B-
8r
8B-
=270
4g
8r
8e-
8r
8e-
=271
8a-
8r
8a-
8cc
8r
8cc
=272
8b-
8r
8b-
8ee-
8r
8ee-
=273
8aa-
8r
8aa-
8ccc
8r
8ccc
=274
8bb-
8r
8b-
8e-
8r
8e-
=275
8a-
8r
8a-
8cc
8r
8cc
=276
8b-
8r
8g
8f
8r
8a-
=277
8e-
8r
8g
8d
8r
8f
=278
4e-
8r
8e-
8r
8e-
=279
8a-
8r
8a-
8cc-
8r
8cc-
=280
8b-
8r
8b-
8ee-
8r
8ee-
=281
8aa-
8r
8aa-
8ccc-
8r
8ccc-
=282
8bb-
8r
8b-
8g-
8r
8g-
=283
8cc-
8r
8cc-
8ee-
8r
8ee-
=284
8dd-
8r
8dd-
8gg-
8r
8gg-
=285
8ccc-
8r
8ccc-
8eee-
8r
8eee-
=286
8ddd-
8r
8dd-
8g-
8r
8g-
=287
8cc
8r
8cc
8ee-
8r
8ee-
=288
[2.dd-
=289
4.dd-]
4dd-
8r
=290
4dd-
8r
4dd-
8r
=291
4dd-
8r
4dd-
8r
=292
2.dd-
=293
4.ddd-
4ddd-
8r
=294
4ddd-
8r
4ddd-
8r
=295
4ddd-
8r
4ddd-
8r
=296
4ddd-
8ff
8gg-
8aa-
8bb-
=297
4r
8dd
8ee-
8ff
8gg-
=298
4r
8b-
8cc-
8dd-
8ee-
=299
4r
8g
8a-
8b-
8cc-
=300
8r
8A-
8c-
8e-
8c-
8e-
=301
8a-
8e-
8a-
8cc-
8a-
8cc-
=302
8ee-
8dd-
8cc-
8b-
8cc-
8a-
=303
8dd-
8b-
8g-
8cc-
8a-
8f
=304
8r
8ddd-
8ff
8gg-
8aa-
8bb-
=305
8r
8bb-
8dd
8ee-
8ff
8gg-
=306
8r
8gg-
8b-
8cc-
8dd-
8ee-
=307
8r
8ee-
8g
8a-
8b-
8cc-
=308
8r
8A-
8c-
8e-
8c-
8e-
=309
8a-
8e-
8a-
8cc-
8a-
8cc-
=310
8ee-
8e-
8a-
8cc-
8a-
8cc-
=311
8ee-
8cc-
8ee-
8aa-
8ee-
8aa-
=312
8ccc-
8ee-
8aa-
8ccc-
8aa-
8ccc-
=313
8eee-
8ee-
8aa-
8ccc-
8aa-
8ccc-
=314
8eee-
8ee-
8dd
8ee-
8ee
8ff
=315
8gg-
8gg
8aa-
8aa
8bb-
8ccc-
=316
8ccc
8ddd-
8ddd
8eee-
8ccc-
8aa-
=317
4gg-
8r
4.aa-
=318
8gg-
8r
8g-
8b-
8r
8b-
=319
8dd-
8r
8dd-
8gg-
8r
8gg-
=320
8bb-
8r
8bb-
8ddd-
8r
8gg-
=321
8bb-
8r
8dd-
8gg-
8r
8b-
=322
8dd-
8r
8g-
8b-
8r
8a-
=323
8cc-
8r
8f
8a-
8r
8f
=324
8g-
8r
8g-
8b-
8r
8b-
=325
8dd-
8r
8dd-
8gg-
8r
8gg-
=326
8bb-
8r
8bb-
8ddd-
8r
8gg-
=327
8bb-
8r
8dd-
8gg-
8r
8b-
=328
8dd-
8r
8b-
8dd-
8r
8b-
=329
8dd
8r
8a-
8dd
8r
8dd
=330
8ee-
8r
8e-
8g-
8r
8g-
=331
8b-
8r
8b-
8ee-
8r
8ee-
=332
8gg-
8r
8gg-
8bb-
8r
8ee-
=333
8gg-
8r
8b-
8ee-
8r
8g-
=334
8b-
8r
8e-
8g-
8r
8f
=335
8a-
8r
8d
8f
8r
8d
=336
8e-
8r
8e-
8g-
8r
8g-
=337
8b-
8r
8b-
8ee-
8r
8ee-
=338
8gg-
8r
8gg-
8bb-
8r
8ee-
=339
8gg-
8r
8b-
8ee-
8r
8g-
=340
8b-
8r
8e-
8g-
8r
8B-
=341
8e-
8r
8A
8c
8r
8A
=342
8B-
8d
8f
8c#
8d
8f
=343
2.r
=344
8B-
8d
8f
8c#
8d
8f
=345
2.r
=346
8B-
8f
8a-
8e
8f
8a-
=347
2.r
=348
8B-
8f
8a-
8e
8f
8a-
=349
2.r
=350
8B-
8f
8a-
4r
8r
=351
8B-
8f
8a-
4r
8r
=352
8B-
8f
8a-
4r
8r
=353
8B-
8f
8a-
4r
8r
=354
8B-
8f
8a-
8B-
8f
8a-
=355
8B-
8f
8a-
8B-
8f
8a-
=356
8B-
8f
8a-
8B-
8f
8a-
=357
8B-
8f
8a-
8B-
8e-
8g
=358
8B-
8e-
8g
8d
8e-
8g
=359
8B-
8e-
8g
8d
8e-
8g
=360
8B-
8f
8a-
8e
8f
8a-
=361
8B-
8e-
8g
8d
8e-
8g
=362
8d
8f
8a-
8B-
8f
8a-
=363
8B-
8e-
8g
8d
8e-
8g
=364
8B-
8e-
8g
8d
8e-
8g
=365
8B-
8e-
8g
8d
8e-
8g
=366
8B-
8f
8a-
8e
8f
8a-
=367
8B-
8e-
8g
8d
8e-
8g
=368
8d
8f
8a-
8B-
8f
8a-
=369
8B-
8e-
8g
8e-
8g
8b-
=370
8e
8g
8b-
8c
8g
8b-
=371
8c
8f
8a-
8e
8f
8a-
=372
8e
8g
8b-
8c
8g
8b-
=373
8c
8f
8a-
8g
8a-
8cc
=374
8g
8b-
8dd-
8e-
8b-
8dd-
=375
8e-
8a-
8cc
8g
8a-
8cc
=376
8g
8b-
8dd-
8e-
8b-
8dd-
=377
8e-
8a-
8cc
8g
8a-
8cc
=378
8g
8b-
8dd-
8e-
8b-
8dd-
=379
8g
8b-
8dd-
8e-
8b-
8dd-
=380
8g
8b-
8dd-
8e-
8b-
8dd-
=381
8g
8b-
8dd-
8e-
8b-
8dd-
=382
8e-
8a-
8cc
8g
8a-
8cc
=383
8e-
8a-
8cc
8g
8a-
8cc
=384
8e-
8a-
8cc
8g
8a-
8cc
=385
8e-
8a-
8cc
8g
8a-
8cc
=386
2.ee-
=387
4.ee-[
4ee-]
8r
=388
4r
8r
4r
8bb-
=389
4bb-
8gg
4ee-
8b-
=390
4b-
8a-
4f
8d
=391
4e-
8r
8r
8A-
8c
=392
8E-
8A-
8c
8G
8A-
8c
=393
8E-
8A-
8c
8G
8A-
8c
=394
8E-
8A-
8c
8G
8A-
8c
=395
8E-
8A-
8c
8G
8A-
8c
=396
2.e-
=397
4.e-[
4e-]
8bb-
=398
8bb-
8aa-
8gg
8aa-
8ff
8dd
=399
4ee-
8r
4r
8b-
=400
8b-
8a-
8g
8a-
8f
8d
=401
4e-
8r
4r
8b-
=402
4b-
8a-
4f
8d
=403
4cc-
8a-
4f
8d
=404
4cc
8a-
4f
8d
=405
4cc-
8a-
4f
8d
=406
4b-
8a-
4f
8d
=407
4e-
8r
4r
8r
=408
4r
8r
4r
8r
=409
4e-
8r
4dd
8r
=410
4ee-
8r
4r
8r
=411
4ddd
8r
4r
8r
=412
4eee-
4r
4r
==
*-
